build/system/SettingsOutline.svg

<svg xmlns="http://www.w3.org/2000/svg" fill="none" viewBox="0 0 24 24" focusable="false"><path d="M0 0H24V24H0z"/><path fill="#74767B" fill-rule="evenodd" d="M9.22535 4.5354C9.34712 3.65809 10.0972 3.00494 10.9829 3.00494L12.8964 3.00494C13.7713 3.00494 14.5157 3.64275 14.6498 4.50738C14.8232 5.62549 16.015 6.29682 17.0778 5.86531C17.8985 5.53211 18.8392 5.85512 19.282 6.62217L20.2387 8.27929C20.6762 9.03703 20.4961 10.0006 19.8143 10.549C18.9327 11.2583 18.9472 12.6261 19.8523 13.3307C20.5512 13.8748 20.7418 14.851 20.299 15.618L19.3422 17.2751C18.9047 18.0329 17.9802 18.3586 17.1644 18.0424C16.0549 17.6125 14.8322 18.3184 14.6498 19.4942C14.5157 20.3588 13.7713 20.9966 12.8964 20.9966L10.9829 20.9966C10.0972 20.9966 9.34712 20.3435 9.22535 19.4662C9.06765 18.33 7.89037 17.6336 6.83534 18.0424C6.0195 18.3586 5.09496 18.0329 4.65747 17.2751L3.70074 15.618C3.25788 14.851 3.44849 13.8748 4.14737 13.3307C5.05247 12.6261 5.06698 11.2583 4.18538 10.549C3.50364 10.0006 3.32346 9.03703 3.76095 8.27929L4.71768 6.62217C5.16054 5.85512 6.10122 5.53211 6.92187 5.86531C7.93962 6.27853 9.07434 5.6234 9.22535 4.5354ZM10.9829 4.30494C10.7461 4.30494 10.5456 4.47957 10.513 4.71413C10.2455 6.64132 8.23557 7.80175 6.43283 7.06981C6.21342 6.98073 5.96192 7.06709 5.84352 7.27217L4.88678 8.92929C4.76981 9.13187 4.81799 9.38948 5.00026 9.53612C6.54743 10.7808 6.50054 13.1462 4.94598 14.3565C4.75913 14.502 4.70817 14.7629 4.82657 14.968L5.78331 16.6251C5.90027 16.8277 6.14745 16.9148 6.36558 16.8303C8.21711 16.1127 10.2421 17.336 10.513 19.2875C10.5456 19.522 10.7461 19.6966 10.9829 19.6966L12.8964 19.6966C13.1303 19.6966 13.3293 19.5261 13.3652 19.295C13.6748 17.2988 15.7506 16.1003 17.6341 16.8303C17.8522 16.9148 18.0994 16.8277 18.2164 16.6251L19.1731 14.968C19.2915 14.7629 19.2406 14.502 19.0537 14.3565C17.4992 13.1462 17.4523 10.7808 18.9994 9.53612C19.1817 9.38948 19.2299 9.13187 19.1129 8.92928L18.1562 7.27217C18.0378 7.06709 17.7863 6.98073 17.5669 7.06981C15.7415 7.81096 13.6695 6.66888 13.3652 4.70663C13.3293 4.47547 13.1303 4.30494 12.8964 4.30494L10.9829 4.30494ZM15.9998 12C15.9998 14.2092 14.209 16 11.9998 16C9.79071 16 7.99985 14.2092 7.99985 12C7.99985 9.79087 9.79071 8.00001 11.9998 8.00001C14.209 8.00001 15.9998 9.79087 15.9998 12ZM14.6998 12C14.6998 13.4912 13.491 14.7 11.9998 14.7C10.5087 14.7 9.29985 13.4912 9.29985 12C9.29985 10.5088 10.5087 9.30001 11.9998 9.30001C13.491 9.30001 14.6998 10.5088 14.6998 12Z"/></svg>

<svg xmlns="http://www.w3.org/2000/svg" fill="none" viewBox="0 0 24 24" focusable="false"><path fill="#74767B" fill-rule="evenodd" d="M9.22 4.53c.12-.88.87-1.53 1.76-1.53h1.91c.88 0 1.62.64 1.75 1.5a1.784 1.784 0 0 0 2.43 1.36c.82-.33 1.76-.01 2.21.76l.95 1.65c.44.76.26 1.73-.42 2.27-.88.71-.87 2.08.04 2.79.7.54.89 1.52.44 2.28l-.95 1.66c-.44.76-1.36 1.08-2.18.77-1.11-.43-2.33.27-2.52 1.45-.13.86-.87 1.5-1.75 1.5h-1.91c-.89 0-1.64-.65-1.76-1.53-.16-1.13-1.33-1.83-2.39-1.42-.82.31-1.74-.01-2.18-.77l-.95-1.66c-.45-.76-.26-1.74.44-2.28.91-.71.92-2.08.04-2.79a1.77 1.77 0 0 1-.42-2.27l.95-1.65c.45-.77 1.39-1.09 2.21-.76 1.01.41 2.15-.24 2.3-1.33m1.76-.23c-.24 0-.44.17-.47.41-.27 1.93-2.28 3.09-4.08 2.35-.22-.08-.47 0-.59.21l-.96 1.65c-.11.21-.07.46.12.61 1.54 1.25 1.5 3.61-.06 4.82a.47.47 0 0 0-.12.61l.96 1.66c.12.2.36.29.58.21 1.85-.72 3.88.5 4.15 2.45.03.24.23.41.47.41h1.91c.24 0 .43-.17.47-.4.31-2 2.39-3.19 4.27-2.46.22.08.46-.01.58-.21l.96-1.66a.47.47 0 0 0-.12-.61c-1.56-1.21-1.6-3.57-.06-4.82.19-.15.24-.4.12-.61l-.96-1.65c-.12-.21-.37-.29-.59-.21-1.82.75-3.9-.4-4.2-2.36a.474.474 0 0 0-.47-.4zM12 16c2.2 0 4-1.8 4-4a3.999 3.999 0 1 0-4 4m0-1.3c1.49 0 2.69-1.21 2.69-2.7 0-1.5-1.2-2.71-2.69-2.71a2.706 2.706 0 1 0 0 5.41"/></svg>
